X:79
T:Countess of Eglington’s Delight,The. RH.079
T:Haste to The Wedding,aka? RH.079
R:jig
S:Rev.R.Harrison’s MS,c1815,Cumbria
N:Sounds like..
O:England
A:Temple Sowerby,Cumbria
Z:vmp.Simon Wilson. Review PJH, 2008.
M:6/8
L:1/8
Q:3/8=120
K:D
|:G|(F/G/AA) A2f|e>de (fd)B|\
(F/G/AA) A2f|(e3{d/e/f/} B2)z|!
(F/G/AA) A2f|e>de fdB|b/c’/d’b afd’|afd d2:|!
|:b|(af)a (d’^a)c’|(bg)b afd|\
(af)a (d’^a)c’|(bf)b e2b|!
(af)a (d’^a)c’|(bg)b afd|1bc’d’ afd|\
Adc d2:|2(bg)e (af)d|(Ad)c d2:|

